X:1
T:Title
%%score 1 2
L:1/8
Q:1/4=130
M:6/4
K:Bb
V:1 treble nm="Grand Piano, Soprano"
V:2 bass nm="Choir Pad, Cordova, Hubert Main, 1890"
V:1
 [DF]2 [DF]4 [DB]2 [DB]4 | [DB]2 [Ec]3 [Fd] [Ec]2 [DB]4 | [DB]2 [Ge]4 [Ge]2 [Fd]3 [Fc] | %3
w: By~Hubert~Platt~Main,~1890 * * *|||
 [FB]2 [Fd]4- [Fd]2 [Fc]4 | [EF]2 [DF]4 [DB]2 [DB]4 | [DB]2 [=EB]3 [Ec] [GB]2 [FA]4 | %6
w: |||
 [Fc]2 [Fc]3 [FB] [FA]2 [FA]3 [=EG] | F2 [=EG]4- [EG]2 F4 | z2 [Ec]3 [Fd] [Ec]2 [DB]4 | %9
w: |||
 F2 [Ae]3 [Af] [Ae]2 [Bd]4 | z2 [Bd]3 [Fc] [FB]2 [Ff]3 [Fe] | [Fd]2 [Fd]4- [Fd]2 [Fc]4 | %12
w: |||
 [EF]2 [DF]4 [DB]2 [DB]4 | [DB]2 [Ec]3 [Fd] [Ec]2 [DB]4 | [Ge]2 [Fd]3 [Ec] [DB]2 [FB]3 [EA] | %15
w: |||
 [DB]2 [Ec]4- [Ec]2 [DB]4- | [DB]6 z6 |] %17
w: ||
V:2
 [B,,B,]2 [B,,B,]4 [B,,F,]2 [B,,F,]4 | [B,,F,]2 [F,A,]3 [F,A,] [F,A,]2 [B,,B,]4 | %2
 B,2 B,4 B,2 [B,,B,]3 [C,A,] | [D,B,]2 [F,B,]4- [F,B,]2 [F,A,]4 | %4
 [F,A,]2 [B,,B,]4 [B,,F,]2 [B,,F,]4 | [B,,B,]2 [C,G,]3 [C,G,] [C,C]2 [F,C]4 | %6
 [F,A,]2 [F,A,]3 [F,D] [F,C]2 [C,C]3 [C,B,] | [C,A,]2 [C,B,]4- [C,B,]2 [F,A,]4 | %8
 z2 [F,A,]3 [F,A,] [F,A,]2 [B,,B,]4 | [D,B,]2 [F,C]3 [F,C] [F,C]2 B,4 | %10
 z2[K:treble] [B,F]3 [B,E][K:bass] [B,D]2 [D,B,]3 [C,A,] | [B,,B,]2 [F,A,]4- [F,A,]2 [F,A,]4 | %12
 [F,A,]2 [B,,B,]4 [B,,F,]2 [B,,F,]4 | [B,,B,]2 [F,A,]3 [F,A,] [F,A,]2 [G,B,]4 | %14
 [E,B,]2 [F,B,]3 F, F,2 [F,D]3 [F,C] | [F,B,]2 [F,A,]4- [F,A,]2 [B,,B,]4- | [B,,B,]6 z6 |] %17

